Hatter-kde/actions/24/node.svg

<svg xmlns="http://www.w3.org/2000/svg" viewBox="0 0 24 24">
  <defs id="defs3051">
    <style type="text/css" id="current-color-scheme">
      .ColorScheme-Text {
        color:#363636;
      }
      </style>
  </defs>
 <path style="fill:currentColor;fill-opacity:1;stroke:none" 
     d="M 7 4 L 6.90625 4.09375 L 4 7 L 4 7.90625 L 4 19.3125 L 4 20 L 4.6875 20 L 16.125 20 L 16.96875 20 L 17 19.96875 L 19.90625 17.0625 L 19.96875 17 L 20 16.96875 L 20 16.4375 L 20 4.6875 L 20 4 L 19.3125 4 L 7.53125 4 L 7 4 z M 8 5 L 18.3125 5 L 16.375 6.9375 L 16.3125 7 L 8 7 L 8 5 z M 7 5.375 L 7 7 L 5.375 7 L 7 5.375 z M 19 5.6875 L 19 16 L 17 16 L 17 7.6875 L 17.0625 7.625 L 19 5.6875 z M 5 8 L 7 8 L 7 16.28125 L 6.65625 16.65625 L 5 18.3125 L 5 8 z M 8 8 L 16 8 L 16 16 L 8 16 L 8 8 z M 7.71875 17 L 16 17 L 16 19 L 5.6875 19 L 7.34375 17.34375 L 7.71875 17 z M 17 17 L 18.59375 17 L 17 18.59375 L 17 17 z "
     class="ColorScheme-Text"
     />
</svg>

<?xml version="1.0" encoding="UTF-8"?>
<svg viewBox="0 0 24 24" xmlns="http://www.w3.org/2000/svg">
 <defs id="defs3051">
  <style id="current-color-scheme" type="text/css">.ColorScheme-Text {
        color:#363636;
      }</style>
 </defs>
 <path class="ColorScheme-Text" d="m7 4-3 3v0.90625 11.406 0.6875h0.6875 11.438 0.84375l3.0312-3.0312v-0.53125-11.75-0.6875h-0.6875-11.781-0.53125zm1 1h10.312l-2 2h-8.3125v-2zm-1 0.375v1.625h-1.625l1.625-1.625zm12 0.3125v10.312h-2v-8.3125l2-2zm-14 2.3125h2v8.2812l-0.34375 0.375-1.6562 1.6562v-10.312zm3 0h8v8h-8v-8zm-0.28125 9h8.2812v2h-10.312l1.6562-1.6562 0.375-0.34375zm9.2812 0h1.5938l-1.5938 1.5938v-1.5938z" fill="currentColor"/>
</svg>
